X: 2304
T: MAGGIE BROWN'S JIG
%R: jig
B: James Kerr "Merry Melodies" v.2 p.33 #304
Z: 2016 John Chambers <jc:trillian.mit.edu>
N: Oddly, there's a final repeat symbol, but no others.
M: 6/8
L: 1/8
K: G
ug |\
dBG GAB | E2E E2c | AFD DEF | G2G G2g |\
dBG GAB | E2E E2c | AFD DEF | G3 G2 ||\
g/a/ |\
bgb afd | efg gfe | dBg dBG | AFD Dga |
bgb afd | efg gfe | faf ge^c | d2d de=f ||\
(ec)e (dB)d | (ca)c (Bg)B | Ace dBG | FAF EFG |\
GAB EFG | ABc def | (gd)B (cA)F | G3 G2 :|
